Applications/Spire/Resources/Icons/sign_in/wordmark_preview.svg

<svg viewBox="0 0 72 41" fill="none" xmlns="http://www.w3.org/2000/svg">
<g clip-path="url(#clip0_1_27)">
<path d="M7 25.3C5.052 25.291 3.109 25.09 1.2 24.7C0.88 24.678 0.622 24.42 0.6 24.1V21.7C0.621 21.379 0.879 21.121 1.2 21.1C3.127 21.297 5.063 21.397 7 21.4C9.9 21.4 10.8 20.3 10.8 18.5C10.8 17.3 10.2 16.5 8.1 15.3L3.9 12.7C0.8 10.9 0 9.1 0 6.8C0 3.2 2.1 0.600002 8.2 0.600002C10.281 0.595002 12.358 0.796002 14.4 1.2C14.721 1.221 14.979 1.479 15 1.8V4.2C15 4.5 14.7 4.7 14.4 4.7C12.3 4.5 10.2 4.4 8 4.4C5.6 4.4 4.5 5.3 4.5 6.7C4.5 7.8 5.1 8.4 7.2 9.6L11.1 11.7C14.7 13.7 15.6 15.8 15.6 18.4C15.6 21.8 13.5 25.3 7 25.3Z" fill="white"/>
<path d="M29.9 14.6C29.9 11.9 29.1 9.9 26.4 9.9C25.327 9.921 24.258 10.021 23.2 10.2V21.6C24.256 21.794 25.327 21.895 26.4 21.9C29.3 21.9 29.9 19.9 29.9 17.2V14.6ZM26.4 25.3C25.325 25.332 24.25 25.231 23.2 25V30.8C23.179 31.121 22.921 31.379 22.6 31.4H19.6C19.279 31.379 19.021 31.121 19 30.8V8.005C19 7.51 19.205 7.281 19.9 7.105C22.027 6.567 24.207 6.266 26.4 6.205C31.7 6.205 34.1 9.205 34.1 14.405V17C34.3 22.1 31.7 25.3 26.4 25.3Z" fill="white"/>
<path d="M41.2 25H38.2C37.9 25 37.6 24.7 37.6 24.2V7.2C37.621 6.879 37.879 6.621 38.2 6.6H41.2C41.521 6.621 41.779 6.879 41.8 7.2V24.3C41.8 24.75 41.7 25 41.2 25ZM41.4 4.2H38.2C37.9 4.2 37.4 3.9 37.4 3.6V0.6C37.4 0.3 37.7 0 38.2 0H41.4C41.721 0.021 41.979 0.279 42 0.6V3.5C42.019 3.854 41.753 4.164 41.4 4.2Z" fill="white"/>
<path d="M54.7 10C53.122 10.004 51.571 10.417 50.2 11.2V24.4C50.2 24.7 49.9 25.2 49.6 25.2H46.6C46.3 25.2 46 24.9 46 24.4V7.3C46.021 6.979 46.279 6.721 46.6 6.7H49.5C49.781 6.766 49.986 7.012 50 7.3V8C51.364 7.007 53.013 6.481 54.7 6.5C55.021 6.521 55.279 6.779 55.3 7.1V9.5C55.3 9.7 55.2 9.995 54.7 9.995" fill="white"/>
<path d="M67.5 14.1C67.5 11.5 66.1 10.2 64 10.2C61.9 10.2 60.5 11.6 60.5 14.1V14.3L67.5 14.1ZM71.2 17.3H60.6V17.5C60.6 19.3 61.4 21.6 64.5 21.6C66.9 21.6 69.2 21.4 70.6 21.3H70.8C71.099 21.276 71.367 21.497 71.4 21.795V23.895C71.403 23.925 71.398 24.01 71.398 24.04C71.398 24.483 71.042 24.69 70.6 24.795C68.505 25.292 66.351 25.494 64.2 25.395C60.9 25.395 56.3 23.595 56.3 17.195V14.8C56.3 9.6 59.2 6.5 64.2 6.5C69.2 6.5 72 9.9 72 14.7V16.5C72 17 71.7 17.3 71.2 17.3Z" fill="white"/>
<path d="M70.8 26.56H26.2C25.5373 26.56 25 27.0973 25 27.76V39.76C25 40.4228 25.5373 40.96 26.2 40.96H70.8C71.4627 40.96 72 40.4228 72 39.76V27.76C72 27.0973 71.4627 26.56 70.8 26.56Z" fill="#FFD071"/>
<path d="M28.66 34.58V37.9H27.1V28.94H30.53C31.53 28.94 32.33 29.2 32.91 29.72C33.5 30.24 33.79 30.93 33.79 31.79C33.79 32.65 33.5 33.35 32.93 33.84C32.35 34.33 31.55 34.57 30.51 34.57H28.66V34.58ZM28.66 33.33H30.53C31.08 33.33 31.51 33.2 31.8 32.94C32.09 32.68 32.24 32.3 32.24 31.81C32.24 31.32 32.09 30.94 31.8 30.65C31.51 30.36 31.1 30.21 30.58 30.2H28.67V33.33H28.66Z" fill="#231F20"/>
<path d="M38.49 32.61C38.29 32.58 38.09 32.56 37.88 32.56C37.19 32.56 36.73 32.82 36.5 33.35V37.9H35V31.24H36.43L36.47 31.99C36.83 31.41 37.33 31.12 37.97 31.12C38.18 31.12 38.36 31.15 38.5 31.21V32.61H38.49Z" fill="#231F20"/>
<path d="M42.25 38.03C41.3 38.03 40.53 37.73 39.95 37.13C39.36 36.53 39.07 35.74 39.07 34.75V34.57C39.07 33.91 39.2 33.31 39.45 32.79C39.71 32.27 40.07 31.86 40.53 31.57C40.99 31.28 41.51 31.13 42.08 31.13C42.99 31.13 43.69 31.42 44.18 32C44.67 32.58 44.92 33.4 44.92 34.45V35.05H40.57C40.61 35.6 40.8 36.03 41.12 36.35C41.44 36.67 41.85 36.83 42.34 36.83C43.03 36.83 43.58 36.55 44.01 36L44.82 36.77C44.55 37.17 44.2 37.48 43.75 37.7C43.3 37.92 42.81 38.03 42.25 38.03ZM42.07 32.32C41.66 32.32 41.33 32.46 41.08 32.75C40.83 33.04 40.67 33.44 40.6 33.95H43.45V33.84C43.42 33.34 43.28 32.96 43.05 32.71C42.82 32.45 42.48 32.32 42.07 32.32Z" fill="#231F20"/>
<path d="M48.35 36.01L49.76 31.25H51.3L48.99 37.91H47.69L45.36 31.25H46.91L48.34 36.01H48.35Z" fill="#231F20"/>
<path d="M52.24 29.52C52.24 29.29 52.31 29.1 52.46 28.95C52.61 28.8 52.81 28.72 53.08 28.72C53.35 28.72 53.56 28.8 53.71 28.95C53.86 29.1 53.93 29.29 53.93 29.52C53.93 29.75 53.86 29.93 53.71 30.08C53.56 30.23 53.35 30.3 53.08 30.3C52.81 30.3 52.6 30.22 52.46 30.08C52.31 29.93 52.24 29.74 52.24 29.52ZM53.83 37.9H52.33V31.24H53.83V37.9Z" fill="#231F20"/>
<path d="M58.38 38.03C57.43 38.03 56.66 37.73 56.08 37.13C55.49 36.53 55.2 35.74 55.2 34.75V34.57C55.2 33.91 55.33 33.31 55.58 32.79C55.84 32.27 56.2 31.86 56.66 31.57C57.12 31.28 57.64 31.13 58.21 31.13C59.12 31.13 59.82 31.42 60.31 32C60.8 32.58 61.05 33.4 61.05 34.45V35.05H56.7C56.74 35.6 56.93 36.03 57.25 36.35C57.57 36.67 57.98 36.83 58.47 36.83C59.16 36.83 59.71 36.55 60.14 36L60.95 36.77C60.68 37.17 60.33 37.48 59.88 37.7C59.43 37.92 58.94 38.03 58.38 38.03ZM58.21 32.32C57.8 32.32 57.47 32.46 57.22 32.75C56.97 33.04 56.81 33.44 56.74 33.95H59.59V33.84C59.56 33.34 59.42 32.96 59.19 32.71C58.96 32.45 58.62 32.32 58.21 32.32Z" fill="#231F20"/>
<path d="M68.06 35.84L69.12 31.24H70.58L68.77 37.9H67.54L66.11 33.33L64.71 37.9H63.48L61.66 31.24H63.12L64.2 35.79L65.57 31.24H66.7L68.08 35.84H68.06Z" fill="#231F20"/>
</g>
<defs>
<clipPath id="clip0_1_27">
<rect width="72" height="41" fill="white"/>
</clipPath>
</defs>
</svg>

<?xml version="1.0" encoding="UTF-8"?><svg id="logo" xmlns="http://www.w3.org/2000/svg" xmlns:xlink="http://www.w3.org/1999/xlink" viewBox="0 0 72 41"><defs><style>.cls-1{clip-path:url(#clippath);}.cls-2{fill:none;}.cls-2,.cls-3,.cls-4,.cls-5{stroke-width:0px;}.cls-3{fill:#ffd071;}.cls-6{isolation:isolate;}.cls-4{fill:#fff;}.cls-5{fill:#231f20;}</style><clipPath id="clippath"><rect class="cls-2" width="72" height="41"/></clipPath></defs><g class="cls-1"><path id="Path_135" class="cls-4" d="M7,25.33c-1.95,0-3.89-.21-5.8-.6-.32-.02-.58-.28-.6-.6v-2.4c.02-.32.28-.58.6-.6,1.93.2,3.86.3,5.8.3,2.9,0,3.8-1.1,3.8-2.9,0-1.2-.6-2-2.7-3.2l-4.2-2.6C.8,10.93,0,9.13,0,6.83,0,3.23,2.1.63,8.2.63c2.08,0,4.16.2,6.2.6.32.02.58.28.6.6v2.4c-.2.2-.3.5-.6.5-2.1-.2-4.2-.3-6.4-.3-2.4,0-3.5.9-3.5,2.3,0,1.1.6,1.7,2.7,2.9l3.9,2.1c3.6,2,4.5,4.1,4.5,6.7,0,3.4-2.1,6.9-8.6,6.9"/><path id="Path_136" class="cls-4" d="M29.9,14.63c0-2.7-.8-4.7-3.5-4.7-1.07.02-2.14.12-3.2.3v11.4c1.06.19,2.13.29,3.2.3,2.9,0,3.5-2,3.5-4.7v-2.6ZM26.4,25.33c-1.07.03-2.15-.07-3.2-.3v5.8c-.02.32-.28.58-.6.6h-3c-.32-.02-.58-.28-.6-.6V8.04c0-.5.2-.8.9-.9,2.13-.54,4.31-.84,6.5-.9,5.3,0,7.7,3,7.7,8.2v2.6c.2,5.1-2.4,8.3-7.7,8.3"/><path id="Path_137" class="cls-4" d="M41.2,25.03h-3c-.3,0-.6-.3-.6-.8V7.23c.02-.32.28-.58.6-.6h3c.32.02.58.28.6.6v17.1c.2.4-.1.7-.6.7M41.4,4.23h-3.2c-.3,0-.8-.3-.8-.6V.63c0-.3.3-.6.8-.6h3.2c.32.02.58.28.6.6v2.9c.02.36-.24.66-.6.7"/><path id="Path_138" class="cls-4" d="M54.7,10.03c-1.58,0-3.13.42-4.5,1.2v13.2c0,.3-.3.8-.6.8h-3c-.3,0-.6-.3-.6-.8V7.33c.02-.32.28-.58.6-.6h2.9c.28.07.48.31.5.6v.7c1.37-.99,3.02-1.52,4.71-1.5.32.02.58.28.6.6v2.4c0,.2-.1.5-.6.5"/><path id="Path_139" class="cls-4" d="M67.5,14.13c0-2.6-1.4-3.9-3.5-3.9s-3.5,1.4-3.5,3.9v.2l7-.2ZM71.2,17.33h-10.6v.2c0,1.8.8,4.1,3.9,4.1,2.4,0,4.7-.2,6.1-.3h.2c.3-.02.57.2.6.5v2.1c.05.44-.27.84-.71.89-.03,0-.06,0-.09,0-2.1.5-4.25.7-6.4.6-3.3,0-7.9-1.8-7.9-8.2v-2.39c0-5.2,2.9-8.3,7.9-8.3s7.8,3.4,7.8,8.2v1.8c-.2.5-.3.8-.8.8"/><g id="Group_37"><rect class="cls-3" x="25" y="26.56" width="47" height="14.4" rx="1.2" ry="1.2"/><g id="BETA" class="cls-6"><path class="cls-5" d="M28.66,34.58v3.32h-1.56v-8.96h3.43c1,0,1.8.26,2.38.78.59.52.88,1.21.88,2.07s-.29,1.56-.86,2.05c-.58.49-1.38.73-2.42.73h-1.85ZM28.66,33.33h1.87c.55,0,.98-.13,1.27-.39.29-.26.44-.64.44-1.13s-.15-.87-.44-1.16-.7-.44-1.22-.45h-1.91v3.13Z"/><path class="cls-5" d="M38.49,32.61c-.2-.03-.4-.05-.61-.05-.69,0-1.15.26-1.38.79v4.55h-1.5v-6.66h1.43l.04.75c.36-.58.86-.87,1.5-.87.21,0,.39.03.53.09v1.4Z"/><path class="cls-5" d="M42.25,38.03c-.95,0-1.72-.3-2.3-.9-.59-.6-.88-1.39-.88-2.38v-.18c0-.66.13-1.26.38-1.78.26-.52.62-.93,1.08-1.22.46-.29.98-.44,1.55-.44.91,0,1.61.29,2.1.87.49.58.74,1.4.74,2.45v.6h-4.35c.04.55.23.98.55,1.3.32.32.73.48,1.22.48.69,0,1.24-.28,1.67-.83l.81.77c-.27.4-.62.71-1.07.93-.45.22-.94.33-1.5.33ZM42.07,32.32c-.41,0-.74.14-.99.43-.25.29-.41.69-.48,1.2h2.85v-.11c-.03-.5-.17-.88-.4-1.13-.23-.26-.56-.38-.97-.38Z"/><path class="cls-5" d="M48.35,36.01l1.41-4.76h1.54l-2.31,6.66h-1.3l-2.33-6.66h1.55l1.43,4.76Z"/><path class="cls-5" d="M52.24,29.52c0-.23.07-.42.22-.57.15-.15.35-.23.62-.23s.48.08.63.23c.15.15.22.34.22.57s-.07.41-.22.56c-.15.15-.36.22-.63.22s-.48-.08-.62-.22c-.15-.15-.22-.34-.22-.56ZM53.83,37.9h-1.5v-6.66h1.5v6.66Z"/><path class="cls-5" d="M58.38,38.03c-.95,0-1.72-.3-2.3-.9-.59-.6-.88-1.39-.88-2.38v-.18c0-.66.13-1.26.38-1.78.26-.52.62-.93,1.08-1.22.46-.29.98-.44,1.55-.44.91,0,1.61.29,2.1.87.49.58.74,1.4.74,2.45v.6h-4.35c.04.55.23.98.55,1.3.32.32.73.48,1.22.48.69,0,1.24-.28,1.67-.83l.81.77c-.27.4-.62.71-1.07.93-.45.22-.94.33-1.5.33ZM58.21,32.32c-.41,0-.74.14-.99.43-.25.29-.41.69-.48,1.2h2.85v-.11c-.03-.5-.17-.88-.4-1.13-.23-.26-.56-.38-.97-.38Z"/><path class="cls-5" d="M68.06,35.84l1.06-4.6h1.46l-1.81,6.66h-1.23l-1.43-4.57-1.4,4.57h-1.23l-1.82-6.66h1.46l1.08,4.55,1.37-4.55h1.13l1.38,4.6Z"/></g></g></g></svg>
